X: 4738
T: Boys Of Ballivanich, The
R: reel
M: 4/4
K: Bminor
"Bm" f3e dBBd|ABBB faag|"G"f3e dBBd|"A"cA A2 "F#m"eAce|
"Bm" f3e dBBd|ABBB faaf|"Em"g3f efed|"A"cA A2 eAcA|
"G"fBBA B3 e|f3e faag|"Em7"fBBA B3 d|"A"cA A2 eAce|
"G"fBBA B3e|"D"f3e faaf|"Em"g2 fg efed|"A" cA A2 eAce|
"G"B2 ag "Bm"f3e|dB B2 df f2|"F#m" c2ag "A" efed|cA A2 eAcA|
"G"d2ag "Bm"f3e|"D" dB B2 df f2|"G"A2ag efed|1 "A"cA A2 eAcA|2 "A"cA A2 eAce||

